icons/electricity.svg

<svg width="48" height="48" viewBox="0 0 48 48" fill="none" xmlns="http://www.w3.org/2000/svg">
<path d="M25 12L19 21H23L23 27L29 18H25V12Z" fill="black"/>
<path fill-rule="evenodd" clip-rule="evenodd" d="M37.9094 19.2725C37.6099 21.8396 36.5762 24.2717 34.9273 26.2885C33.9648 27.4628 31.5197 30.8193 31 33H17C16.4803 30.8176 14.0324 27.4611 13.0699 26.2851C11.4217 24.2678 10.3888 21.8354 10.0901 19.2681C9.79137 16.7008 10.2391 14.1031 11.3816 11.7742C12.524 9.44531 14.3149 7.47995 16.5477 6.10453C18.7806 4.72911 21.3646 3.99959 24.0022 4C26.6398 4.00041 29.2237 4.73075 31.4561 6.10687C33.6885 7.48299 35.4787 9.44891 36.6204 11.7782C37.7621 14.1074 38.209 16.7053 37.9094 19.2725ZM29.5837 31H18.4164C17.9901 30.0165 17.4206 29.032 16.8906 28.1951C16.0473 26.8635 15.1472 25.6656 14.6187 25.0197C13.2102 23.2957 12.3308 21.2216 12.0767 19.037C11.8225 16.8525 12.203 14.6407 13.1771 12.6551C14.1514 10.6691 15.6816 8.98707 17.5967 7.80738C19.5121 6.62747 21.7326 5.99964 24.0019 6C26.2713 6.00036 28.4915 6.62888 30.4066 7.80939C32.3213 8.98968 33.8509 10.6721 34.8245 12.6584C35.798 14.6443 36.1778 16.8563 35.9229 19.0407C35.668 21.225 34.7882 23.2987 33.3793 25.0221C32.8498 25.6684 31.9501 26.8663 31.1077 28.1972C30.5783 29.0337 30.0096 30.0175 29.5837 31Z" fill="black"/>
<path d="M17 36C17 35.4477 17.4477 35 18 35H30C30.5523 35 31 35.4477 31 36C31 36.5523 30.5523 37 30 37H18C17.4477 37 17 36.5523 17 36Z" fill="black"/>
<path fill-rule="evenodd" clip-rule="evenodd" d="M17 39H31V42C31 43.1046 30.1046 44 29 44H19C17.8954 44 17 43.1046 17 42V39ZM19 41H29V42H19V41Z" fill="black"/>
</svg>

<svg
  xmlns="http://www.w3.org/2000/svg"
  width="24"
  height="24"
  viewBox="0 0 24 24"
  fill="none"
  stroke="currentColor"
  stroke-width="2"
  stroke-linecap="round"
  stroke-linejoin="round"
>
  <path d="m25 12-6 9h4v6l6-9h-4z" />
  <path
    fill-rule="evenodd"
    d="M37.91 19.273c-.3 2.567-1.334 4.999-2.983 7.015C33.965 27.464 31.52 30.82 31 33H17c-.52-2.182-2.968-5.539-3.93-6.715a13.57 13.57 0 0 1-2.98-7.017 13.47 13.47 0 0 1 1.292-7.494 13.8 13.8 0 0 1 5.166-5.67A14.2 14.2 0 0 1 24.002 4c2.638 0 5.222.73 7.454 2.107a13.8 13.8 0 0 1 5.164 5.671 13.47 13.47 0 0 1 1.29 7.495M29.583 31H18.416c-.426-.983-.995-1.968-1.525-2.805a35 35 0 0 0-2.272-3.175 11.57 11.57 0 0 1-2.542-5.983 11.47 11.47 0 0 1 1.1-6.382 11.8 11.8 0 0 1 4.42-4.848A12.2 12.2 0 0 1 24.002 6c2.27 0 4.49.629 6.405 1.81a11.8 11.8 0 0 1 4.418 4.848 11.47 11.47 0 0 1 1.098 6.383 11.57 11.57 0 0 1-2.544 5.981c-.53.646-1.429 1.844-2.271 3.175-.53.837-1.098 1.82-1.524 2.803"
    clip-rule="evenodd"
  />
  <path d="M17 36a1 1 0 0 1 1-1h12a1 1 0 1 1 0 2H18a1 1 0 0 1-1-1" />
  <path
    fill-rule="evenodd"
    d="M17 39h14v3a2 2 0 0 1-2 2H19a2 2 0 0 1-2-2zm2 2h10v1H19z"
    clip-rule="evenodd"
  />
</svg>
